assets/Thumbs down/Medium/Flat/thumbs_down_flat_medium.svg

<svg width="32" height="32" viewBox="0 0 32 32" fill="none" xmlns="http://www.w3.org/2000/svg">
<path d="M19.6875 26.4403C19.6875 29.3403 17.5625 30.0237 16.375 30.0028C13.9625 30.0028 13.2927 27.9938 13.0938 26.9247C12.8464 25.5954 13.0885 22.4157 13.1996 20.9559L13.2027 20.9143C13.044 20.9514 12.8726 20.9716 12.6875 20.9716H8.83C7.27 20.9716 6 19.7016 6 18.1416C6 17.3355 6.25865 16.6069 6.76542 16.0909C5.72106 15.6301 5 14.6631 5 13.5478C5 12.5249 5.46273 11.6267 6.36431 11.1295C5.54092 10.6185 5 9.76378 5 8.79785C5 7.69011 5.54264 6.7286 6.5976 6.2642C6.22328 5.87828 6 5.30388 6 4.47C6 3.09102 6.96875 1.96839 8.83 1.96839L12.6875 1.9684C12.7329 1.9684 12.7776 1.96947 12.8217 1.9716H15.9531C26.3906 1.79972 27 8.56535 27 11.3153C27 16.4714 24.7021 18.0041 22.6594 19.3666C21.6936 20.0107 20.785 20.6168 20.2031 21.5497C19.715 22.3325 19.6875 23.0497 19.6875 26.4403Z" fill="#C68D7B"/>
<path d="M14.3943 6.91281H9C8.72386 6.91281 8.5 6.68895 8.5 6.41281C8.5 6.13667 8.72386 5.91281 9 5.91281H14.5486C14.8815 5.40409 15.0156 4.8285 15.0156 4.47C15.0156 3.38537 14.4092 2.24163 13.1608 2.0105C15.723 2.11556 17.0312 3.28919 17.0312 4.69035C17.0312 5.86535 16.3229 6.55855 15.9687 6.75827C16.6226 7.22697 17.0312 7.91465 17.0312 8.8466C17.0312 10.081 15.9687 11.1122 15.9687 11.1122C15.9687 11.1122 17.0312 12.0497 17.0312 13.331C17.0312 14.481 16.5312 15.4091 15.9687 15.6591C16.5312 16.0497 17 16.7528 17 18.0028C17 20.3778 14.0208 20.9403 13 20.9716L12.9998 20.9514C14.5733 20.7413 15.0156 18.9516 15.0156 18.1416C15.0156 17.4552 14.7366 16.5681 14.1732 15.9716H9C8.72386 15.9716 8.5 15.7477 8.5 15.4716C8.5 15.1954 8.72386 14.9716 9 14.9716H14.6197C14.9 14.4528 15.0156 13.9051 15.0156 13.5478C15.0156 12.7968 14.7632 12.0207 14.2493 11.4716H9C8.72386 11.4716 8.5 11.2477 8.5 10.9716C8.5 10.6954 8.72386 10.4716 9 10.4716H14.4696C14.8593 9.88612 15.0156 9.21319 15.0156 8.79785C15.0156 8.33144 14.876 7.54024 14.3943 6.91281Z" fill="#A9715F"/>
</svg>

<svg xmlns="http://www.w3.org/2000/svg" width="32" height="32" fill="none"><path fill="#C68D7B" d="M19.688 26.44c0 2.9-2.125 3.584-3.313 3.563-2.412 0-3.082-2.01-3.281-3.078-.248-1.33-.005-4.51.106-5.97l.003-.04c-.159.036-.33.057-.515.057H8.83c-1.56 0-2.83-1.27-2.83-2.83 0-.806.259-1.535.765-2.051C5.721 15.63 5 14.663 5 13.548c0-1.023.463-1.921 1.364-2.418C5.541 10.617 5 9.764 5 8.797c0-1.108.543-2.07 1.598-2.534C6.223 5.878 6 5.304 6 4.47c0-1.379.969-2.502 2.83-2.502h3.857c.046 0 .09.001.135.004h3.131C26.391 1.8 27 8.565 27 11.315c0 5.156-2.298 6.69-4.34 8.052-.966.644-1.875 1.25-2.457 2.183-.488.782-.515 1.5-.515 4.89Z"/><path fill="#A9715F" d="M14.394 6.913H9a.5.5 0 0 1 0-1h5.549c.333-.509.467-1.085.467-1.443 0-1.085-.607-2.228-1.855-2.46 2.562.106 3.87 1.28 3.87 2.68 0 1.175-.708 1.869-1.062 2.068.654.469 1.062 1.157 1.062 2.089 0 1.234-1.062 2.265-1.062 2.265s1.062.938 1.062 2.219c0 1.15-.5 2.078-1.062 2.328.562.39 1.031 1.094 1.031 2.344 0 2.375-2.98 2.937-4 2.969v-.02c1.573-.21 2.016-2 2.016-2.81 0-.687-.28-1.574-.843-2.17H9a.5.5 0 0 1 0-1h5.62c.28-.52.396-1.067.396-1.424 0-.751-.253-1.527-.767-2.076H9a.5.5 0 0 1 0-1h5.47c.39-.586.546-1.259.546-1.674 0-.467-.14-1.258-.622-1.885Z"/></svg>
